projects/packages/jetpack-mu-wpcom/src/assets/images/draft-post.svg

<svg fill="none" height="95" viewBox="0 0 209 95" width="209" xmlns="http://www.w3.org/2000/svg" xmlns:xlink="http://www.w3.org/1999/xlink"><clipPath id="a"><path d="m0 0h209v95h-209z"/></clipPath><g clip-path="url(#a)"><path d="m0 0h209v95h-209z" fill="#fff"/><path d="m77.7799 74.5478s2.2549-2.5185.9095-7.2849l45.5416-32.6334c9.44-6.8292 16.42-12.3631 22.832-16.7377l17.353-12.81847s3.889 5.22067-1.393 9.16977c-5.281 3.9533-85.2431 60.3047-85.2431 60.3047z" fill="#dcdcde"/><path clip-rule="evenodd" d="m79.7894 71.024 83.0346-57.4906c2.965-2.0531 3.664-6.14179 1.55-9.06393-2.114-2.92213-6.216-3.536853-9.094-1.36273l-80.5818 60.87986zm-.3304 1.9316 84.162-58.2712c3.61-2.4996 4.462-7.47777 1.888-11.03554-2.574-3.5577713-7.569-4.306214-11.073-1.65916l-81.6759 61.7065z" fill="#02395c" fill-rule="evenodd"/><path d="m73.9493 63.3164 3.9579 4.4586-11.1057 10.9635c-1.6295.4466-5.0172.5545-5.5328-2.5871-.5155-3.1417 8.2389-9.8657 12.6806-12.835z" fill="#fff"/><path d="m63.8361 78.6872c7.9685-5.1791 12.2376-10.0737 13.3761-11.8737 3.6571 2.6261 3.6647 5.403 3.2114 6.4632-5.5958 5.2199-12.8717 7.8477-15.8101 8.5092z" fill="#dcdcde"/><path d="m50.4718 92.0167c8.7725-7.5534 9.7034-13.8314 8.7793-16.4313l1.8842-1.3631 1.8647 2.6965 2.564 3.425-13.2639 12.613z" fill="#dcdcde"/><g fill="#02395c"><path clip-rule="evenodd" d="m74.8536 64.378c-1.0021-.6361-1.5687-.6047-1.8121-.4879-2.5976 1.247-5.56 4.0189-7.9542 6.6183-1.1761 1.2769-2.1788 2.4716-2.8873 3.3471-.1817.2245-.3439.4278-.4843.6056l4.0633 5.6166c.213-.0778.4567-.1682.7269-.2705 1.0532-.3991 2.5017-.9776 4.0825-1.695 3.218-1.4607 6.7775-3.4072 8.7741-5.4846.1872-.1948.3942-.7233.1035-1.8743-.2736-1.0832-.9158-2.3668-1.7834-3.566-.8675-1.1992-1.8858-2.2106-2.829-2.8093zm-9.5952 17.3685s10.7184-3.5759 15.1135-8.1488c2.7967-2.9099-4.2979-12.7162-7.9362-10.9697-5.7177 2.7447-12.4681 11.8054-12.4681 11.8054z" fill-rule="evenodd"/><path clip-rule="evenodd" d="m151.47 13.7614c-.58-.7512-1.652-.8981-2.383-.3573l-.003.0026h-.001l-10.999 8.0334c-.724.5387-.87 1.5636-.301 2.3063.579.75 1.648.8974 2.383.356l.002-.0016 11-8.0335c.725-.5395.87-1.5673.302-2.3059zm-3.214-1.4841c1.36-1.0046 3.29-.7091 4.322.6294l.001.0007c1.038 1.3488.788 3.272-.579 4.2858l-.004.0031v-.0001l-11 8.0335c0 .0003 0 .0006-.001.0009-1.361 1.0017-3.288.7097-4.321-.6299l-.002-.0018c-1.035-1.3504-.788-3.2702.58-4.2846l.004-.0031 10.998-8.0325c.001-.0005.001-.0009.002-.0014z" fill-rule="evenodd"/><path clip-rule="evenodd" d="m60.8791 74.507c.189.3372.0689.7638-.2683.9529l-14.7376 8.2629c.362 2.7184-.4346 5.6811-2.9336 9.4108-.2152.3211-.65.407-.9712.1918s-.4071-.65-.1919-.9711c2.5296-3.7754 3.0845-6.4991 2.6405-8.8747-.0552-.295.0839-.5924.3457-.7392l15.1634-8.5017c.3373-.189.7639-.0689.953.2683z" fill-rule="evenodd"/><path clip-rule="evenodd" d="m65.4739 80.8581c-.2611-.2851-.7039-.3045-.989-.0433l-12.4588 11.4127c-2.4687-1.1943-5.5319-1.3646-9.8562-.1578-.3723.1039-.59.49-.4861.8624.104.3723.4901.59.8624.486 4.3772-1.2214 7.1379-.8964 9.2553.2686.2629.1447.5889.1056.8102-.0971l12.8189-11.7425c.285-.2611.3044-.7039.0433-.989z" fill-rule="evenodd"/><path d="m53.5337 83.7948c.3132-.2266.7508-.1563.9774.1569s.1564.7508-.1568.9774l-10.2085 7.3855c-.3133.2266-.7509.1564-.9775-.1568s-.1564-.7508.1569-.9774z"/></g></g></svg>

<svg width="209" height="95" viewBox="0 0 209 95" fill="none" xmlns="http://www.w3.org/2000/svg">
<g clip-path="url(#clip0_3017:1879)">
<rect width="209" height="95" fill="white"/>
<path d="M77.7799 74.5478C77.7799 74.5478 80.0348 72.0293 78.6894 67.2629L124.231 34.6295C133.671 27.8003 140.651 22.2664 147.063 17.8918L164.416 5.07333C164.416 5.07333 168.305 10.294 163.023 14.2431C157.742 18.1964 77.7799 74.5478 77.7799 74.5478Z" fill="#DCDCDE"/>
<path fill-rule="evenodd" clip-rule="evenodd" d="M79.7894 71.024L162.824 13.5334C165.789 11.4803 166.488 7.39161 164.374 4.46947C162.26 1.54734 158.158 0.932617 155.28 3.10674L74.6982 63.9866L79.7894 71.024ZM79.459 72.9556L163.621 14.6844C167.231 12.1848 168.083 7.20663 165.509 3.64886C162.935 0.0910887 157.94 -0.657354 154.436 1.9897L72.7601 63.6962L79.459 72.9556Z" fill="#02395C"/>
<path d="M73.9493 63.3164L77.9072 67.775L66.8015 78.7385C65.172 79.1851 61.7843 79.293 61.2687 76.1514C60.7532 73.0097 69.5076 66.2857 73.9493 63.3164Z" fill="white"/>
<path d="M63.8361 78.6872C71.8046 73.5081 76.0737 68.6135 77.2122 66.8135C80.8693 69.4396 80.8769 72.2165 80.4236 73.2767C74.8278 78.4966 67.5519 81.1244 64.6135 81.7859L63.8361 78.6872Z" fill="#DCDCDE"/>
<path d="M50.4718 92.0167C59.2443 84.4633 60.1752 78.1853 59.2511 75.5854L61.1353 74.2223L63 76.9188L65.564 80.3438L52.3001 92.9568L50.4718 92.0167Z" fill="#DCDCDE"/>
<path fill-rule="evenodd" clip-rule="evenodd" d="M74.8536 64.378C73.8515 63.7419 73.2849 63.7733 73.0415 63.8901C70.4439 65.1371 67.4815 67.909 65.0873 70.5084C63.9112 71.7853 62.9085 72.98 62.2 73.8555C62.0183 74.08 61.8561 74.2833 61.7157 74.4611L65.779 80.0777C65.992 79.9999 66.2357 79.9095 66.5059 79.8072C67.5591 79.4081 69.0076 78.8296 70.5884 78.1122C73.8064 76.6515 77.3659 74.705 79.3625 72.6276C79.5497 72.4328 79.7567 71.9043 79.466 70.7533C79.1924 69.6701 78.5502 68.3865 77.6826 67.1873C76.8151 65.9881 75.7968 64.9767 74.8536 64.378ZM65.2584 81.7465C65.2584 81.7465 75.9768 78.1706 80.3719 73.5977C83.1686 70.6878 76.074 60.8815 72.4357 62.628C66.718 65.3727 59.9676 74.4334 59.9676 74.4334L65.2584 81.7465Z" fill="#02395C"/>
<path fill-rule="evenodd" clip-rule="evenodd" d="M151.47 13.7614C150.89 13.0102 149.818 12.8633 149.087 13.4041L149.084 13.4067L149.083 13.4067L138.084 21.4401C137.36 21.9788 137.214 23.0037 137.783 23.7464C138.362 24.4964 139.431 24.6438 140.166 24.1024L140.168 24.1008L151.168 16.0673C151.893 15.5278 152.038 14.5 151.47 13.7614ZM148.256 12.2773C149.616 11.2727 151.546 11.5682 152.578 12.9067L152.579 12.9074C153.617 14.2562 153.367 16.1794 152 17.1932L151.996 17.1963L151.996 17.1962L140.996 25.2297C140.996 25.23 140.996 25.2303 140.995 25.2306C139.634 26.2323 137.707 25.9403 136.674 24.6007L136.672 24.5989C135.637 23.2485 135.884 21.3287 137.252 20.3143L137.256 20.3112L137.256 20.3112L148.254 12.2787C148.255 12.2782 148.255 12.2778 148.256 12.2773Z" fill="#02395C"/>
<path fill-rule="evenodd" clip-rule="evenodd" d="M60.8791 74.507C61.0681 74.8442 60.948 75.2708 60.6108 75.4599L45.8732 83.7228C46.2352 86.4412 45.4386 89.4039 42.9396 93.1336C42.7244 93.4547 42.2896 93.5406 41.9684 93.3254C41.6472 93.1102 41.5613 92.6754 41.7765 92.3543C44.3061 88.5789 44.861 85.8552 44.417 83.4796C44.3618 83.1846 44.5009 82.8872 44.7627 82.7404L59.9261 74.2387C60.2634 74.0497 60.69 74.1698 60.8791 74.507Z" fill="#02395C"/>
<path fill-rule="evenodd" clip-rule="evenodd" d="M65.4739 80.8581C65.2128 80.573 64.77 80.5536 64.4849 80.8148L52.0261 92.2275C49.5574 91.0332 46.4942 90.8629 42.1699 92.0697C41.7976 92.1736 41.5799 92.5597 41.6838 92.9321C41.7878 93.3044 42.1739 93.5221 42.5462 93.4181C46.9234 92.1967 49.6841 92.5217 51.8015 93.6867C52.0644 93.8314 52.3904 93.7923 52.6117 93.5896L65.4306 81.8471C65.7156 81.586 65.735 81.1432 65.4739 80.8581Z" fill="#02395C"/>
<path d="M53.5337 83.7948C53.8469 83.5682 54.2845 83.6385 54.5111 83.9517C54.7377 84.2649 54.6675 84.7025 54.3543 84.9291L44.1458 92.3146C43.8325 92.5412 43.3949 92.471 43.1683 92.1578C42.9417 91.8446 43.0119 91.407 43.3252 91.1804L53.5337 83.7948Z" fill="#02395C"/>
</g>
<defs>
<clipPath id="clip0_3017:1879">
<rect width="209" height="95" fill="white"/>
</clipPath>
</defs>
</svg>
